logo/dropzone.svg

<?xml version="1.0" encoding="UTF-8" standalone="no"?>
<svg width="256px" height="256px" viewBox="0 0 256 256" version="1.1" xmlns="http://www.w3.org/2000/svg" xmlns:xlink="http://www.w3.org/1999/xlink" preserveAspectRatio="xMidYMid">
	<g fill="#028BF4">
		<path d="M128,42.6666667 C80.8711111,42.6666667 42.6666667,80.8711111 42.6666667,128 L42.6666667,213.333333 L64,213.333333 L128,213.333333 C175.128889,213.333333 213.333333,175.128889 213.333333,128 C213.333333,80.8711111 175.128889,42.6666667 128,42.6666667 L128,42.6666667 L128,42.6666667 Z M128,192 L64,192 L64,128 C64,92.6542222 92.6542222,64 128,64 C163.345778,64 192,92.6542222 192,128 C192,163.345778 163.349333,192 128,192 L128,192 L128,192 Z"></path>
		<path d="M128,85.3333333 C104.437333,85.3333333 85.3333333,104.437333 85.3333333,128 L85.3333333,170.666667 L106.666667,170.666667 L128,170.666667 C151.562667,170.666667 170.666667,151.562667 170.666667,128 C170.666667,104.437333 151.562667,85.3333333 128,85.3333333 L128,85.3333333 L128,85.3333333 Z M128,149.333333 L106.666667,149.333333 L106.666667,128 C106.666667,116.220444 116.220444,106.666667 128,106.666667 C139.779556,106.666667 149.333333,116.220444 149.333333,128 C149.333333,139.779556 139.783111,149.333333 128,149.333333 L128,149.333333 L128,149.333333 Z"></path>
		<path d="M128,0 L0,0 L0,256 L128,256 C198.691556,256 256,198.691556 256,128 C256,57.3084444 198.691556,0 128,0 L128,0 L128,0 Z M128,234.666667 L21.3333333,234.666667 L21.3333333,170.666667 L21.3333333,128 C21.3333333,69.0915556 69.0915556,21.3333333 128,21.3333333 C186.908444,21.3333333 234.666667,69.0915556 234.666667,128 C234.666667,186.908444 186.912,234.666667 128,234.666667 L128,234.666667 L128,234.666667 Z"></path>
	</g>
</svg>

<svg viewBox="0 0 256 256" xmlns="http://www.w3.org/2000/svg"><g fill="#028BF4"><path d="M128 42.66c-47.13 0-85.34 38.2-85.34 85.33v85.33h21.33 64c47.12 0 85.33-38.21 85.33-85.34s-38.21-85.34-85.34-85.34v0 0Zm0 149.33H64v-64c0-35.35 28.65-64 64-64 35.34 0 64 28.65 64 64 0 35.34-28.66 64-64 64v0 0Z"/><path d="M128 85.33c-23.57 0-42.67 19.1-42.67 42.66v42.66h21.33 21.33c23.56 0 42.66-19.11 42.66-42.67 0-23.57-19.11-42.67-42.67-42.67v0 0Zm0 64h-21.34v-21.34c0-11.78 9.55-21.34 21.33-21.34 11.77 0 21.33 9.55 21.33 21.33 0 11.77-9.56 21.33-21.34 21.33v0 0Z"/><path d="M128 0H0v256h128c70.69 0 128-57.31 128-128C256 57.3 198.69 0 128 0v0 0Zm0 234.66H21.33v-64 -42.67c0-58.91 47.75-106.67 106.66-106.67 58.9 0 106.66 47.75 106.66 106.66 0 58.9-47.76 106.66-106.67 106.66v0 0Z"/></g></svg>
